X: 23
T: Sonata in A minor, L.64, K.148
C: Domenico Scarlatti
%%abc-version 2.0
%%abcx-abcm2ps-target-version 5.9.1 (29 Sep 2008)
%%abc-creator hum2abc beta
%%abcx-conversion-date 2021/06/28 10:15:40
%%abc-copyright 2021 Craig Stuart Sapp
%%abc-edited-by Craig Stuart Sapp
%%abc-edited-by Craig Stuart Sapp
%%abcx-initial-encoding-date 2008/04/22
%%humdrum-veritas 1137883152
%%humdrum-veritas-data 697240531
%%linebreak <none>
%%barnumbers 0
L: 1/8
M: 3/8
N: Derived from L064K148.krn
Q: "Andante ([quarter-dot]=54)" 1/8=160
%%staves {1 2}
V: 1 clef=treble
V: 2 clef=bass
K: C
[V:1] e3 | 
[V:2] A,B,C | 
[V:1] fdB | 
[V:2] D2D | 
[V:1] ecA | 
[V:2] C2C | 
[V:1] B3/c//d//c | 
[V:2] ^G,E,A, | 
[V:1] z2e | 
[V:2] !mordent!CB,A, | 
[V:1] B3/c//d//c | 
[V:2] ^G,E,A, | 
[V:1] z2.e | 
[V:2] !mordent!CB,A, | 
[V:1] B3/c//d//c | 
[V:2] ^G,E,A, | 
[V:1] z af | 
[V:2] F,2D | 
[V:1] z ge | 
[V:2] E,2C | 
[V:1] z fd | 
[V:2] D,2B, | 
[V:1] z ef | 
[V:2] C,CD | 
[V:1] ge.c | 
[V:2] E2E | 
[V:1] d3/e//f//e | 
[V:2] B,G,C | 
[V:1] z2.g | 
[V:2] !mordent!EDC | 
[V:1] d3/e//f//e | 
[V:2] B,G,C | 
[V:1] z c'e | 
[V:2] [C,C][C,C][C,C] | 
[V:1] !mordent!^f3 | 
[V:2] [D,C][D,C][D,C] | 
[V:1] !mordent!g3 | 
[V:2] [D,B,][D,B,][D,B,] | 
[V:1] [g3a3] | 
[V:2] [D,^C][D,C][D,C] | 
[V:1] [f3a3] | 
[V:2] [D,D][D,D][D,D] | 
[V:1] [e3^g3] | 
[V:2] [E,D][E,D][E,D] | 
[V:1] [c3e3a3] | 
[V:2] [E,C][E,C][E,C] | 
[V:1] [B3^f3a3] | 
[V:2] [E,^D][E,D][E,D] | 
[V:1] gab | 
[V:2] [E,E]^F,G, | 
[V:1] ^fga | 
[V:2] A,2B, | 
[V:1] ^de/^f/g/a/ | 
[V:2] C2C | 
[V:1] {/a}b3 | 
[V:2] B,2A | 
[V:1] z2.b | 
[V:2] !mordent!G^FE | 
[V:1] ^f3/g//a//g | 
[V:2] ^DB,E | 
[V:1] z2.b | 
[V:2] !mordent!G^FE | 
[V:1] ^f3/g//a//g- | 
[V:2] ^DB,E | 
[V:1] g^fe | 
[V:2] ^A,3 | 
[V:1] c'^de | 
[V:2] =A,2G, | 
[V:1] (3a/g/^f/.[eg].[^df] | 
[V:2] A,.B,.B,, | 
[V:1] e3 | 
[V:2] z E,A, | 
[V:1] z2.B | 
[V:2] !mordent!G,^F,E, | 
[V:1] ^F3/G//A//G | 
[V:2] ^D,B,,D, | 
[V:1] z2.B | 
[V:2] !mordent!G,^F,E, | 
[V:1] ^F3/G//A//G- | 
[V:2] ^D,B,,E, | 
[V:1] G^FE | 
[V:2] ^A,,3 | 
[V:1] c^DE | 
[V:2] =A,,2G,, | 
[V:1] (3A/G/^F/.[EG].[^DF] | 
[V:2] .A,,B,,2 | 
[V:1] Ee=f- & E2A | 
[V:2] C,2D, | 
[V:1] fed & ^G3 | 
[V:2] E,3 | 
[V:1] {/d/}!mordent!c2B | 
[V:2] A,,A,G, | 
[V:1] (3A/G/^F/.[EG].[^DF] | 
[V:2] A,.B,.B,, | 
[V:1] Ee=f- & E2A | 
[V:2] C,2D, | 
[V:1] fed & ^G3 | 
[V:2] E,3 | 
[V:1] {/d/}!mordent!c2B | 
[V:2] A,,A,G, | 
[V:1] (3A/G/^F/.[EG].[^DF] | 
[V:2] A,.B,.B,, | 
[V:1] E2z :|]|:  
[V:2] E,2z :|]|:  
[V:1] e3 | 
[V:2] z ED | 
[V:1] e3 | 
[V:2] ^CE_B, | 
[V:1] e3- | 
[V:2] A,EG, | 
[V:1] eag | 
[V:2] [F,2A,2][E,^C] | 
[V:1] !mordent!fed | 
[V:2] [D,3D3] | 
[V:1] d3 | 
[V:2] z DC | 
[V:1] d3 | 
[V:2] B,DA, | 
[V:1] d3- | 
[V:2] G,DF, | 
[V:1] dgf | 
[V:2] [E,2G,2][D,B,] | 
[V:1] !mordent!edc | 
[V:2] [C,3C3] | 
[V:1] ge^c | 
[V:2] E,2E, | 
[V:1] {/^c/}d3 | 
[V:2] z D,E, | 
[V:1] z ac | 
[V:2] ^F,2F, | 
[V:1] z gB | 
[V:2] G,2G, | 
[V:1] z eG- | 
[V:2] C,2C, | 
[V:1] G^F/E/.D | 
[V:2] D,2z | 
[V:1] z2.d | 
[V:2] !mordent!B,A,G, | 
[V:1] A3/B//c//B | 
[V:2] ^F,D,G, | 
[V:1] z2.d | 
[V:2] !mordent!B,A,G, | 
[V:1] A3/B//c//B | 
[V:2] ^F,D,G, | 
[V:1] [B3b3] | 
[V:2] .[G,=F].[G,F].[G,F] | 
[V:1] [c3c'3] | 
[V:2] .[G,E].[G,E].[G,E] | 
[V:1] [^c3^c'3] | 
[V:2] .[A,G].[A,G].[A,G] | 
[V:1] [d3d'3] | 
[V:2] .[A,^F].[A,F].[A,F] | 
[V:1] [^d3a3] | 
[V:2] .[B,G].[B,G].[B,G] | 
[V:1] [=d3b3] | 
[V:2] .[B,G].[B,G][B,G] | 
[V:1] [cc']ba- | 
[V:2] [A,A][G,G][F,F] | 
[V:1] a!mordent!^g/^f/.e | 
[V:2] [E,3E3] | 
[V:1] z2.e | 
[V:2] !mordent!CB,A, | 
[V:1] B3/c//d//c | 
[V:2] ^G,E,A, | 
[V:1] z2.e | 
[V:2] !mordent!CB,A, | 
[V:1] B3/c//d//c- | 
[V:2] ^G,E,A, | 
[V:1] cBA | 
[V:2] ^D,3 | 
[V:1] f^GA | 
[V:2] =D,2C, | 
[V:1] (3d/c/B/.[Ac].[^GB] | 
[V:2] D,.E,.E,, | 
[V:1] A3 | 
[V:2] A,,A,B, | 
[V:1] z2.e | 
[V:2] !mordent!CB,A, | 
[V:1] B3/c//d//c | 
[V:2] ^G,E,A, | 
[V:1] z2.e | 
[V:2] !mordent!CB,A, | 
[V:1] B3/c//d//c- | 
[V:2] ^G,E,A, | 
[V:1] cBA | 
[V:2] ^D,3 | 
[V:1] f^GA | 
[V:2] =D,2C, | 
[V:1] (3d/c/B/.[Ac].[^GB] | 
[V:2] D,.E,.E,, | 
[V:1] Aa_b- & A2d | 
[V:2] F,2G, | 
[V:1] bag & ^c3 | 
[V:2] A,3 | 
[V:1] {/g/}!mordent!f2e | 
[V:2] D,DC | 
[V:1] (3d/c/B/.[Ac].[^GB] | 
[V:2] D.E.E, | 
[V:1] Aa_b- & A2d | 
[V:2] F,2G, | 
[V:1] bag & ^c3 | 
[V:2] A,2A,, | 
[V:1] {/g/}!mordent!f2e | 
[V:2] D,,D,C, | 
[V:1] (3d/c/B/.[Ac].[^GB] | 
[V:2] D,.E,.E,, | 
[V:1] A3 :|]  
[V:2] A,,3 :|]  


